public/images/main/Logo.svg

<svg width="131" height="50" viewBox="0 0 131 50" fill="none" xmlns="http://www.w3.org/2000/svg">
<path d="M23 1V48.5M23 1L45 37H34.5M23 1L34.5 37M23 1L1 37H11.5M23 1L11.5 37M23 48.5L34.5 37M23 48.5L11.5 37" stroke="url(#paint0_linear_4_41)" stroke-width="0.8"/>
<path d="M63.8955 19.4004V20.2061H56.5566V19.4004H63.8955ZM59.4863 15.123H60.292V31.4561C60.292 32.3838 60.3994 33.0869 60.6143 33.5654C60.8389 34.0342 61.1318 34.3516 61.4932 34.5176C61.8643 34.6738 62.2598 34.752 62.6797 34.752C62.9824 34.752 63.251 34.7422 63.4854 34.7227C63.7197 34.6934 63.9736 34.6592 64.2471 34.6201L64.3789 35.3672C64.1641 35.4355 63.8857 35.4795 63.5439 35.499C63.2021 35.5283 62.9287 35.543 62.7236 35.543C62.0498 35.543 61.4688 35.4258 60.9805 35.1914C60.502 34.9473 60.1309 34.5273 59.8672 33.9316C59.6133 33.3359 59.4863 32.5107 59.4863 31.4561V15.123ZM77.958 32.2764V24.0879C77.958 23.209 77.7676 22.457 77.3867 21.832C77.0156 21.207 76.4688 20.7285 75.7461 20.3965C75.0332 20.0645 74.1592 19.8984 73.124 19.8984C72.167 19.8984 71.3027 20.0693 70.5312 20.4111C69.7695 20.7432 69.1641 21.2021 68.7148 21.7881C68.2754 22.374 68.0557 23.0332 68.0557 23.7656L67.2646 23.7363C67.2646 23.1211 67.4062 22.5352 67.6895 21.9785C67.9824 21.4219 68.3877 20.9287 68.9053 20.499C69.4326 20.0693 70.0527 19.7324 70.7656 19.4883C71.4883 19.2344 72.2744 19.1074 73.124 19.1074C74.2275 19.1074 75.1992 19.293 76.0391 19.6641C76.8887 20.0352 77.5527 20.5918 78.0312 21.334C78.5098 22.0762 78.749 23.0039 78.749 24.1172V32.0566C78.749 32.623 78.7832 33.1943 78.8516 33.7705C78.9297 34.3467 79.0322 34.7959 79.1592 35.1182V35.25H78.251C78.1533 34.8691 78.0801 34.4102 78.0312 33.873C77.9824 33.3262 77.958 32.7939 77.958 32.2764ZM78.3096 26.4023L78.3389 27.208H74.208C73.1826 27.208 72.2646 27.3105 71.4541 27.5156C70.6436 27.7109 69.9551 27.9893 69.3887 28.3506C68.8223 28.7119 68.3877 29.1416 68.085 29.6396C67.7822 30.1377 67.6309 30.6895 67.6309 31.2949C67.6309 31.9297 67.8018 32.5107 68.1436 33.0381C68.4951 33.5654 68.9785 33.9854 69.5938 34.2979C70.209 34.6104 70.917 34.7666 71.7178 34.7666C72.8311 34.7666 73.8174 34.5859 74.6768 34.2246C75.5361 33.8535 76.2637 33.3359 76.8594 32.6719C77.4551 32.0078 77.9092 31.2217 78.2217 30.3135L78.5732 31.0459C78.3877 31.5928 78.1094 32.1348 77.7383 32.6719C77.377 33.1992 76.9131 33.6826 76.3467 34.1221C75.7803 34.5518 75.1113 34.8984 74.3398 35.1621C73.5781 35.416 72.7041 35.543 71.7178 35.543C70.7314 35.543 69.8721 35.3623 69.1396 35.001C68.4072 34.6299 67.8408 34.1221 67.4404 33.4775C67.04 32.8232 66.8398 32.0762 66.8398 31.2363C66.8398 30.5332 67.0059 29.8887 67.3379 29.3027C67.6699 28.707 68.1484 28.1943 68.7734 27.7646C69.4082 27.3252 70.1797 26.9883 71.0879 26.7539C71.9961 26.5195 73.0215 26.4023 74.1641 26.4023H78.3096ZM84.0664 19.4004H84.8574V37.1396C84.8574 38.1064 84.6914 38.9268 84.3594 39.6006C84.0273 40.2744 83.5488 40.7822 82.9238 41.124C82.3086 41.4756 81.5615 41.6514 80.6826 41.6514C80.4385 41.6514 80.1992 41.627 79.9648 41.5781C79.7207 41.5293 79.4814 41.4561 79.2471 41.3584L79.291 40.5967C79.4473 40.6553 79.6523 40.7139 79.9062 40.7725C80.1504 40.8311 80.4092 40.8604 80.6826 40.8604C81.4053 40.8604 82.0156 40.7139 82.5137 40.4209C83.0215 40.1279 83.4072 39.7031 83.6709 39.1465C83.9346 38.5898 84.0664 37.9209 84.0664 37.1396V19.4004ZM83.7295 14.4492C83.7295 14.2246 83.8076 14.0342 83.9639 13.8779C84.1201 13.7119 84.3105 13.6289 84.5352 13.6289C84.7598 13.6289 84.9502 13.7119 85.1064 13.8779C85.2725 14.0342 85.3555 14.2246 85.3555 14.4492C85.3555 14.6738 85.2725 14.8643 85.1064 15.0205C84.9502 15.1768 84.7598 15.2549 84.5352 15.2549C84.3105 15.2549 84.1201 15.1768 83.9639 15.0205C83.8076 14.8643 83.7295 14.6738 83.7295 14.4492ZM100.341 32.2764V24.0879C100.341 23.209 100.15 22.457 99.7695 21.832C99.3984 21.207 98.8516 20.7285 98.1289 20.3965C97.416 20.0645 96.542 19.8984 95.5068 19.8984C94.5498 19.8984 93.6855 20.0693 92.9141 20.4111C92.1523 20.7432 91.5469 21.2021 91.0977 21.7881C90.6582 22.374 90.4385 23.0332 90.4385 23.7656L89.6475 23.7363C89.6475 23.1211 89.7891 22.5352 90.0723 21.9785C90.3652 21.4219 90.7705 20.9287 91.2881 20.499C91.8154 20.0693 92.4355 19.7324 93.1484 19.4883C93.8711 19.2344 94.6572 19.1074 95.5068 19.1074C96.6104 19.1074 97.582 19.293 98.4219 19.6641C99.2715 20.0352 99.9355 20.5918 100.414 21.334C100.893 22.0762 101.132 23.0039 101.132 24.1172V32.0566C101.132 32.623 101.166 33.1943 101.234 33.7705C101.312 34.3467 101.415 34.7959 101.542 35.1182V35.25H100.634C100.536 34.8691 100.463 34.4102 100.414 33.873C100.365 33.3262 100.341 32.7939 100.341 32.2764ZM100.692 26.4023L100.722 27.208H96.5908C95.5654 27.208 94.6475 27.3105 93.8369 27.5156C93.0264 27.7109 92.3379 27.9893 91.7715 28.3506C91.2051 28.7119 90.7705 29.1416 90.4678 29.6396C90.165 30.1377 90.0137 30.6895 90.0137 31.2949C90.0137 31.9297 90.1846 32.5107 90.5264 33.0381C90.8779 33.5654 91.3613 33.9854 91.9766 34.2979C92.5918 34.6104 93.2998 34.7666 94.1006 34.7666C95.2139 34.7666 96.2002 34.5859 97.0596 34.2246C97.9189 33.8535 98.6465 33.3359 99.2422 32.6719C99.8379 32.0078 100.292 31.2217 100.604 30.3135L100.956 31.0459C100.771 31.5928 100.492 32.1348 100.121 32.6719C99.7598 33.1992 99.2959 33.6826 98.7295 34.1221C98.1631 34.5518 97.4941 34.8984 96.7227 35.1621C95.9609 35.416 95.0869 35.543 94.1006 35.543C93.1143 35.543 92.2549 35.3623 91.5225 35.001C90.79 34.6299 90.2236 34.1221 89.8232 33.4775C89.4229 32.8232 89.2227 32.0762 89.2227 31.2363C89.2227 30.5332 89.3887 29.8887 89.7207 29.3027C90.0527 28.707 90.5312 28.1943 91.1562 27.7646C91.791 27.3252 92.5625 26.9883 93.4707 26.7539C94.3789 26.5195 95.4043 26.4023 96.5469 26.4023H100.692ZM106.889 22.7988V35.25H106.083V19.4004H106.889V22.7988ZM106.786 25.9629L106.361 25.1279C106.459 24.3467 106.669 23.5996 106.991 22.8867C107.323 22.1641 107.753 21.5195 108.28 20.9531C108.817 20.3867 109.438 19.9375 110.141 19.6055C110.854 19.2734 111.64 19.1074 112.499 19.1074C113.3 19.1074 114.013 19.2148 114.638 19.4297C115.272 19.6348 115.805 19.9619 116.234 20.4111C116.674 20.8506 117.006 21.4268 117.23 22.1396C117.465 22.8525 117.582 23.707 117.582 24.7031V35.25H116.791V24.7031C116.791 23.4336 116.605 22.4521 116.234 21.7588C115.863 21.0654 115.351 20.582 114.696 20.3086C114.042 20.0254 113.295 19.8838 112.455 19.8838C111.459 19.8838 110.609 20.1084 109.906 20.5576C109.203 20.9971 108.627 21.5488 108.178 22.2129C107.729 22.877 107.392 23.5508 107.167 24.2344C106.942 24.918 106.815 25.4941 106.786 25.9629ZM117.582 24.7031L117.04 24.2197C117.138 23.5459 117.353 22.9062 117.685 22.3008C118.026 21.6855 118.466 21.1387 119.003 20.6602C119.54 20.1816 120.165 19.8057 120.878 19.5322C121.601 19.249 122.392 19.1074 123.251 19.1074C124.052 19.1074 124.765 19.2197 125.39 19.4443C126.024 19.6592 126.557 20.0059 126.986 20.4844C127.426 20.9531 127.758 21.5586 127.982 22.3008C128.217 23.043 128.334 23.9414 128.334 24.9961V35.25H127.543V24.9961C127.543 23.6484 127.357 22.6035 126.986 21.8613C126.615 21.1191 126.103 20.6016 125.448 20.3086C124.794 20.0156 124.047 19.874 123.207 19.8838C122.27 19.8936 121.454 20.0693 120.761 20.4111C120.077 20.7432 119.506 21.1631 119.047 21.6709C118.588 22.1787 118.236 22.7061 117.992 23.2529C117.758 23.79 117.621 24.2734 117.582 24.7031Z" fill="url(#paint1_linear_4_41)"/>
<defs>
<linearGradient id="paint0_linear_4_41" x1="1" y1="25" x2="45" y2="25" gradientUnits="userSpaceOnUse">
<stop stop-color="#00E0D0"/>
<stop offset="1" stop-color="#52A9CF"/>
</linearGradient>
<linearGradient id="paint1_linear_4_41" x1="56" y1="25" x2="131" y2="25" gradientUnits="userSpaceOnUse">
<stop stop-color="#00E0D0"/>
<stop offset="1" stop-color="#52A9CF"/>
</linearGradient>
</defs>
</svg>

<svg xmlns="http://www.w3.org/2000/svg" width="131" height="50" fill="none"><path stroke="url(#a)" stroke-width=".8" d="M23 1v47.5M23 1l22 36H34.5M23 1l11.5 36M23 1 1 37h10.5M23 1 11.5 37M23 48.5 34.5 37M23 48.5 11.5 37"/><path fill="url(#b)" d="M63.896 19.4v.806h-7.34V19.4zm-4.41-4.277h.806v16.333q0 1.391.322 2.11.337.703.88.952.555.234 1.186.234.453 0 .805-.03.352-.044.762-.102l.132.747a3.5 3.5 0 0 1-.835.132q-.513.044-.82.044-1.011 0-1.743-.352-.718-.366-1.114-1.26-.38-.892-.38-2.475zm18.472 17.153v-8.188q0-1.319-.571-2.256-.557-.938-1.64-1.436-1.07-.498-2.623-.498-1.435 0-2.593.513-1.143.498-1.816 1.377a3.2 3.2 0 0 0-.66 1.978l-.79-.03q0-.922.424-1.758a4.9 4.9 0 0 1 1.216-1.479 6 6 0 0 1 1.86-1.01 7.1 7.1 0 0 1 2.359-.382q1.655 0 2.915.557 1.275.557 1.992 1.67t.718 2.783v7.94q0 .849.103 1.713.117.865.307 1.348v.132h-.908q-.146-.57-.22-1.377a18 18 0 0 1-.073-1.597m.352-5.874.029.806h-4.131q-1.537 0-2.754.308-1.215.292-2.065.835-.85.54-1.304 1.289a3.13 3.13 0 0 0-.454 1.655q0 .953.513 1.743.526.79 1.45 1.26.922.469 2.124.469 1.67 0 2.959-.542a6.2 6.2 0 0 0 2.182-1.553 6.8 6.8 0 0 0 1.363-2.358l.351.732a6.6 6.6 0 0 1-.835 1.626 6.5 6.5 0 0 1-1.391 1.45q-.85.645-2.007 1.04-1.143.381-2.622.381-1.48 0-2.578-.542-1.1-.557-1.7-1.523-.6-.982-.6-2.242 0-1.054.498-1.933.498-.894 1.435-1.538.953-.66 2.315-1.011 1.362-.352 3.076-.352zm5.756-7.002h.791v17.74q0 1.45-.498 2.46t-1.435 1.524q-.923.527-2.241.527-.367 0-.718-.073a4 4 0 0 1-.718-.22l.044-.761q.234.088.615.175.366.089.777.088 1.084 0 1.83-.44a2.83 2.83 0 0 0 1.158-1.273q.395-.835.395-2.007zm-.337-4.95q0-.338.235-.572a.76.76 0 0 1 .571-.25q.337 0 .571.25.25.235.25.571a.76.76 0 0 1-.25.572.78.78 0 0 1-.57.234.78.78 0 0 1-.572-.235.78.78 0 0 1-.234-.57m16.612 17.826v-8.188q0-1.319-.572-2.256-.555-.938-1.64-1.436-1.07-.498-2.622-.498-1.436 0-2.593.513-1.143.498-1.816 1.377a3.2 3.2 0 0 0-.66 1.978l-.79-.03q0-.922.424-1.758a4.9 4.9 0 0 1 1.216-1.479 6 6 0 0 1 1.86-1.01 7.1 7.1 0 0 1 2.359-.382q1.655 0 2.915.557 1.275.557 1.992 1.67t.718 2.783v7.94q0 .849.102 1.713.117.865.308 1.348v.132h-.908a9 9 0 0 1-.22-1.377 18 18 0 0 1-.073-1.597m.351-5.874.03.806h-4.131q-1.539 0-2.754.308-1.216.292-2.065.835-.85.54-1.304 1.289a3.13 3.13 0 0 0-.454 1.655q0 .953.512 1.743.528.79 1.45 1.26.924.469 2.125.469 1.67 0 2.959-.542a6.2 6.2 0 0 0 2.182-1.553 6.8 6.8 0 0 0 1.362-2.358l.352.732a6.6 6.6 0 0 1-.835 1.626 6.5 6.5 0 0 1-1.391 1.45q-.85.645-2.007 1.04-1.143.381-2.622.381-1.48 0-2.579-.542-1.098-.557-1.699-1.523-.6-.982-.6-2.242 0-1.054.498-1.933.498-.894 1.435-1.538.952-.66 2.315-1.011 1.362-.352 3.076-.352zm6.197-3.603V35.25h-.806V19.4h.806zm-.103 3.164-.425-.835a7.8 7.8 0 0 1 .63-2.241 7.3 7.3 0 0 1 1.289-1.934 6.2 6.2 0 0 1 1.861-1.348q1.07-.498 2.358-.498 1.202 0 2.139.323a3.8 3.8 0 0 1 1.596.981q.66.66.996 1.729.352 1.068.352 2.563V35.25h-.791V24.703q0-1.904-.557-2.944-.556-1.04-1.538-1.45-.981-.425-2.241-.425-1.494 0-2.549.674a5.7 5.7 0 0 0-1.728 1.655 8.2 8.2 0 0 0-1.011 2.021q-.338 1.026-.381 1.729m10.796-1.26-.542-.483a5.7 5.7 0 0 1 .645-1.92 6.2 6.2 0 0 1 1.318-1.64 6 6 0 0 1 1.875-1.128 6.5 6.5 0 0 1 2.373-.425q1.202 0 2.139.337a3.7 3.7 0 0 1 1.596 1.04q.66.704.996 1.817.352 1.113.352 2.695V35.25h-.791V24.996q0-2.021-.557-3.135-.556-1.114-1.538-1.552-.981-.44-2.241-.425-1.406.015-2.446.527a5.5 5.5 0 0 0-1.714 1.26 6 6 0 0 0-1.055 1.582q-.351.805-.41 1.45"/><defs><linearGradient id="a" x1="1" x2="45" y1="25" y2="25" gradientUnits="userSpaceOnUse"><stop stop-color="#00E0D0"/><stop offset="1" stop-color="#52A9CF"/></linearGradient><linearGradient id="b" x1="56" x2="131" y1="25" y2="25" gradientUnits="userSpaceOnUse"><stop stop-color="#00E0D0"/><stop offset="1" stop-color="#52A9CF"/></linearGradient></defs></svg>
